X: 043
T: Ann Derrane's (reel)
N: 012011
C: BB
L: 1/8
M: 4/4
R: reel
Q: 1/4=175
K: G
ef|"G"g2 fg "Em" edBe|"G"dedB "Am"AGEC|"G"B,DGA "Em"BedB|"Am"AGEG "D"Adef|
"G"g2 fg "Em" edBe|"G"dedB "Am"AGEC|"G"B,DGF "Am"EAcA|"D"FGAF "G"G2 :|
ef|"G"gd ~d2 "D"ad ~d2|"Em"bgeg "G"dB ~B2|"Am"cBAc "G"Bdgb|"A"age^c "D"d2 ef|
"G"gd ~d2 "D"ad ~d2|"Em"bgeg "G"dB ~B2|"Am"cBAG "D"FGAc|"G"BG "D"AF "G"G2 :|
%%%%%%%%%%%%%%%%
